**kern	**kern
*part1	*part1
*staff2	*staff1
*I"Piano	*
*clefF4	*clefF4
*k[b-e-a-d-]	*k[b-e-a-d-]
=1	=1
1GGG-X	4D-
.	4BB-
.	4C
.	4E- 4c
=	=
2FFF	4D- 4B-
.	4A-)
4r	4r
(4BBB- 4BB-	[4D- 4F
=	=
*^	*
4BB-)	1EE-	4D-] 4G-X
4rGG	.	(4BB- 4D-
2rGG	.	4C 4E-
.	.	4BB-) 4D-
*v	*v	*
=	=
4FF	(4AAn 4C
(4AAAn 4FF	4C 4F
4BBB-) 4FF	4BB-) 4D-
!	!LO:TX:b:i:t=cresc.
(4DD- [4BB-	(4F 4B-
=	=
*^	*
4EE-) 4BB-]	4rEEyy	4E-) 4G-X
*	*	*clefG2
2E-	(4GG-X	(4B- 4e-
.	4AA-)	4A-) 4c
[4F	(4AAn	(4c 4f
=	=	=
4F]	1BB-	4B-) 4d-
[2.G	.	4r
.	.	[4d-
.	.	4d-] [4g
=	=	=
4G]	1C)	2g]
2.A-	.	.
.	.	[4e-
.	.	4e-] 4a-
=	=	=
!	!	!LO:TX:b:i:t=dim.
1A-	1D-	(4e- 4g-X
.	.	4d- 4f
.	.	4c 4e-
.	.	(4B- 4d-
*v	*v	*
=	=
*-	*-
!!!system-decoration: {(s1,s2)}
